images/files/document.svg

<svg width="133" height="133" viewBox="0 0 133 133" fill="none" xmlns="http://www.w3.org/2000/svg">
<path d="M112.605 23.4215C112.595 23.4114 112.586 23.4012 112.577 23.3901C112.564 23.3759 112.551 23.3606 112.536 23.3464L111.677 22.4088L94.6531 3.82444C92.7597 1.75748 90.2472 0.457634 87.4974 0.100456C87.4943 0.100456 87.4913 0.100456 87.4883 0.0994414C87.4517 0.0953828 87.4152 0.0903091 87.3776 0.0862502C86.9109 0.0294265 86.439 0 85.9642 0H38.8197C33.527 0 29.2206 4.30541 29.2206 9.59814V14.2668H25.94C21.2338 14.2668 17.4043 18.0963 17.4043 22.8046V119.952C17.4043 127.147 23.2571 133 30.4524 133H90.0869C94.7931 133 98.6227 129.17 98.6227 124.464V120.396H106.033C111.326 120.396 115.632 116.09 115.632 110.798V31.3068C115.632 28.3845 114.558 25.5879 112.605 23.4215ZM108.551 26.6858H90.8469C89.8201 26.6858 88.9849 25.8507 88.9849 24.8239V5.93098C89.6689 6.2841 90.2929 6.75695 90.8216 7.33432L107.316 25.3383L108.551 26.6858ZM106.034 115.201H38.8197C36.3915 115.201 34.4159 113.225 34.4159 110.798V98.7109C34.4159 97.2761 33.253 96.1133 31.8182 96.1133C30.3845 96.1133 29.2206 97.2761 29.2206 98.7109V110.798C29.2206 116.091 33.527 120.396 38.8197 120.396H93.4273V124.464C93.4273 126.306 91.9286 127.805 90.0869 127.805H30.4524C26.1227 127.805 22.5996 124.282 22.5996 119.952V22.8046C22.5996 20.9609 24.0983 19.4621 25.94 19.4621H29.2206V77.9297C29.2206 79.3645 30.3845 80.5273 31.8182 80.5273C33.253 80.5273 34.4159 79.3645 34.4159 77.9297V9.59814C34.4159 7.17095 36.3915 5.19531 38.8197 5.19531H83.7896V24.8239C83.7896 28.7153 86.9555 31.8812 90.8469 31.8812H110.437V110.798C110.437 113.225 108.461 115.201 106.034 115.201Z" fill="#DDE0E3"/>
<path d="M48.3311 37.0135H76.1037C77.5374 37.0135 78.7013 35.8507 78.7013 34.4159C78.7013 32.9811 77.5374 31.8182 76.1037 31.8182H48.3311C46.8963 31.8182 45.7334 32.9811 45.7334 34.4159C45.7334 35.8507 46.8963 37.0135 48.3311 37.0135Z" fill="#DDE0E3"/>
<path d="M89.0564 53.3047H48.3311C46.8963 53.3047 45.7334 54.4675 45.7334 55.9023C45.7334 57.3371 46.8963 58.5 48.3311 58.5H89.0564C90.4912 58.5 91.6541 57.3371 91.6541 55.9023C91.6541 54.4675 90.4912 53.3047 89.0564 53.3047Z" fill="#DDE0E3"/>
<path d="M89.0564 74.7911H48.3311C46.8963 74.7911 45.7334 75.954 45.7334 77.3888C45.7334 78.8236 46.8963 79.9865 48.3311 79.9865H89.0564C90.4912 79.9865 91.6541 78.8236 91.6541 77.3888C91.6541 75.954 90.4912 74.7911 89.0564 74.7911Z" fill="#DDE0E3"/>
<path d="M89.0564 96.2766H48.3311C46.8963 96.2766 45.7334 97.4395 45.7334 98.8743C45.7334 100.309 46.8963 101.472 48.3311 101.472H89.0564C90.4912 101.472 91.6541 100.309 91.6541 98.8743C91.6541 97.4395 90.4912 96.2766 89.0564 96.2766Z" fill="#DDE0E3"/>
<path d="M31.8193 85.7257C30.3845 85.7257 29.2217 86.8926 29.2217 88.3264C29.2217 89.7612 30.3845 90.9241 31.8193 90.9241C33.2531 90.9241 34.417 89.7612 34.417 88.3264V88.3203C34.417 86.8855 33.2531 85.7257 31.8193 85.7257Z" fill="#DDE0E3"/>
</svg>

<svg width="133" height="133" fill="none" xmlns="http://www.w3.org/2000/svg"><path d="M112.605 23.422a.418.418 0 0 1-.028-.032c-.013-.014-.026-.03-.041-.044l-.859-.937L94.653 3.824A11.703 11.703 0 0 0 87.488.1l-.11-.013A11.693 11.693 0 0 0 85.964 0H38.82c-5.293 0-9.6 4.305-9.6 9.598v4.669h-3.28c-4.706 0-8.536 3.83-8.536 8.538v97.147c0 7.195 5.853 13.048 13.048 13.048h59.635c4.706 0 8.536-3.83 8.536-8.536v-4.068h7.41c5.293 0 9.599-4.306 9.599-9.598V31.307c0-2.922-1.074-5.72-3.027-7.885Zm-4.054 3.264H90.847a1.864 1.864 0 0 1-1.862-1.862V5.93a6.587 6.587 0 0 1 1.837 1.403l16.494 18.004 1.235 1.348Zm-2.517 88.515H38.82a4.409 4.409 0 0 1-4.404-4.403V98.711a2.597 2.597 0 1 0-5.195 0v12.087c0 5.293 4.306 9.598 9.599 9.598h54.607v4.068a3.345 3.345 0 0 1-3.34 3.341H30.452c-4.33 0-7.852-3.523-7.852-7.853V22.805a3.345 3.345 0 0 1 3.34-3.343h3.28V77.93a2.598 2.598 0 0 0 5.196 0V9.598a4.409 4.409 0 0 1 4.404-4.403h44.97v19.629a7.065 7.065 0 0 0 7.057 7.057h19.59v78.917a4.409 4.409 0 0 1-4.403 4.403Z" fill="#DDE0E3"/><path d="M48.331 37.014h27.773a2.598 2.598 0 0 0 0-5.196H48.33a2.598 2.598 0 1 0 0 5.195ZM89.056 53.305H48.331a2.597 2.597 0 1 0 0 5.195h40.725a2.598 2.598 0 1 0 0-5.195ZM89.056 74.791H48.331a2.598 2.598 0 1 0 0 5.196h40.725a2.598 2.598 0 1 0 0-5.196ZM89.056 96.277H48.331a2.598 2.598 0 1 0 0 5.195h40.725a2.598 2.598 0 1 0 0-5.195ZM31.82 85.726a2.6 2.6 0 0 0-2.598 2.6 2.597 2.597 0 1 0 5.195 0v-.006a2.596 2.596 0 0 0-2.598-2.594Z" fill="#DDE0E3"/></svg>
